X:104
T:Ben in the Minories. JJo8.104
B:J.Johnson Choice Collection Vol 8 1758
Z:vmp.Simon Wilson 2013 www.village-music-project.org.uk
M:6/8
L:1/8
Q:3/8=120
K:G
|:gab agf|g2dB2G|cde dcB|(AB)GF2D|
G2B- B^cd|^cde cAc|def ge^c|d3d3:|
|:D2EF2G|A2B cBA|G2AB2c|d2e =fed|
e2f gag|fdBc2e|dcB cAF|G3G3:|
